projects/canopy/src/assets/brand-icons/index.svg

<svg xmlns="http://www.w3.org/2000/svg" width="320" height="320" fill="none" viewBox="0 0 320 320"><g id="am-index"><path id="lg-icon-fill-primary" fill="#42AEEA" d="M287 271c6.627 6.627 6.627 17.373 0 24s-17.373 6.627-24 0l-51-51 24-24zm-76.859-123A51.8 51.8 0 0 1 216 172c0 25.998-19.079 47.539-44 51.387V148zM148 221.491c-20.89-6.748-36-26.355-36-49.491s15.11-42.744 36-49.492zM52 104c6.627 0 12 5.373 12 12s-5.373 12-12 12-12-5.373-12-12 5.373-12 12-12m144-24c6.627 0 12 5.373 12 12s-5.373 12-12 12-12-5.373-12-12 5.373-12 12-12m72-24c6.627 0 12 5.373 12 12s-5.373 12-12 12-12-5.373-12-12 5.373-12 12-12M124 24c6.627 0 12 5.373 12 12s-5.373 12-12 12-12-5.373-12-12 5.373-12 12-12"/><g id="Outlines" fill="#1D1D1B" fill-rule="evenodd" clip-rule="evenodd"><path d="M164 120c18.41 0 34.585 9.567 43.825 24l.01.016q.26.406.513.819l.094.154a47 47 0 0 1 .592.997q.251.433.493.87l.063.115q.234.426.461.856l.095.182q.215.413.422.83l.076.152a51 51 0 0 1 .947 2.024A51.8 51.8 0 0 1 216 172c0 25.959-19.022 47.473-43.887 51.369l-.098.016a64 64 0 0 1-.881.128l-.218.029a45 45 0 0 1-2.026.229q-2.416.228-4.89.229c-28.719 0-52-23.281-52-52 0-21.632 13.208-40.178 32-48.015l.051-.021a50 50 0 0 1 1.776-.699l.176-.067q.435-.16.874-.312l.136-.047q.933-.323 1.883-.61l.06-.019a51 51 0 0 1 3.028-.814l.016-.003A52 52 0 0 1 164 120m0 8c-4.16 0-8.185.577-12 1.656v84.687a44 44 0 0 0 16 1.473V148a4 4 0 0 1 4-4h25.942c-8.07-9.772-20.279-16-33.942-16m12 86.343c18.468-5.224 32-22.203 32-42.343 0-7.202-1.73-13.999-4.798-20H176zm-32-81.545c-14.247 7.283-24 22.103-24 39.202s9.754 31.918 24 39.201z"/><path d="M148 88a4 4 0 0 1 4 4v13.056l-.033.006A68.4 68.4 0 0 1 164 104c37.555 0 68 30.445 68 68 0 12.443-3.344 24.103-9.18 34.136q.608-1.043 1.18-2.111v10.318l6 6 3.172-3.172a4 4 0 0 1 5.657 0l51 51.001c8.189 8.189 8.189 21.467 0 29.656-8.061 8.062-21.055 8.188-29.27.378l-.387-.378L224 261.656V288h12a4 4 0 0 1 0 8H12a4 4 0 0 1 0-8h12V172a4 4 0 0 1 4-4h48a4 4 0 0 1 4 4v116h16V92a4 4 0 0 1 4-4zm84.864 140.791-.035.038-12 12-.022.021-3.15 3.15 48.171 48.172.24.233c5.082 4.83 13.118 4.753 18.104-.233 5.065-5.065 5.065-13.279 0-18.344L236 225.656zM32 288h40V176H32zm72 0h40v-50.991c-17.275-5.309-31.617-17.312-40-32.984zm48 0h16v-48.117a68.4 68.4 0 0 1-16-.94zm50.441-59.902a67.6 67.6 0 0 1-26.525 10.859l.084-.014V288h40v-34.344l-6.828-6.828-.143-.148a4 4 0 0 1 .143-5.508l3.171-3.172zm12.708-11.292a69 69 0 0 1-6.342 6.343l9.193 9.195 6.343-6.345zM164 112c-33.137 0-60 26.863-60 60s26.863 60 60 60 60-26.863 60-60-26.863-60-60-60m-60 27.974c8.383-15.672 22.725-27.676 40-32.984V96h-40z"/><path d="M124 20c8.837 0 16 7.163 16 16 0 2.258-.469 4.406-1.313 6.355l47.541 36.976A15.93 15.93 0 0 1 196 76c5.63 0 10.58 2.908 13.432 7.304l42.606-14.201A16 16 0 0 1 252 68c0-8.837 7.163-16 16-16s16 7.163 16 16-7.163 16-16 16c-5.631 0-10.582-2.91-13.434-7.307l-42.605 14.201q.038.549.039 1.106c0 8.837-7.163 16-16 16s-16-7.163-16-16c0-2.259.468-4.408 1.312-6.356l-47.54-36.976A15.93 15.93 0 0 1 124 52c-2.667 0-5.182-.653-7.394-1.808l-51.27 56.967A15.9 15.9 0 0 1 68 116c0 8.837-7.163 16-16 16s-16-7.163-16-16 7.163-16 16-16c2.666 0 5.18.652 7.39 1.806l51.272-56.968A15.93 15.93 0 0 1 108 36c0-8.837 7.163-16 16-16m-72 88a8 8 0 1 0 0 16 8 8 0 0 0 0-16m144-24a8 8 0 1 0 0 16 8 8 0 0 0 0-16m72-24a8 8 0 1 0 0 16 8 8 0 0 0 0-16M124 28a8 8 0 1 0 0 16 8 8 0 0 0 0-16"/></g></g></svg>

<svg width="320" height="320" viewBox="0 0 320 320" fill="none" xmlns="http://www.w3.org/2000/svg">
<g id="am-index">
<g id="lg-icon-fill-primary">
<path d="M287 271C293.627 277.627 293.627 288.373 287 295C280.373 301.627 269.627 301.627 263 295L212 244L236 220L287 271Z" fill="#42AEEA"/>
<path d="M210.141 148C213.883 155.18 216 163.343 216 172C216 197.998 196.921 219.539 172 223.387V148H210.141Z" fill="#42AEEA"/>
<path d="M148 221.491C127.11 214.743 112 195.136 112 172C112 148.864 127.11 129.256 148 122.508V221.491Z" fill="#42AEEA"/>
<path d="M52 104C58.6274 104 64 109.373 64 116C64 122.627 58.6274 128 52 128C45.3726 128 40 122.627 40 116C40 109.373 45.3726 104 52 104Z" fill="#42AEEA"/>
<path d="M196 80C202.627 80 208 85.3726 208 92C208 98.6274 202.627 104 196 104C189.373 104 184 98.6274 184 92C184 85.3726 189.373 80 196 80Z" fill="#42AEEA"/>
<path d="M268 56C274.627 56 280 61.3726 280 68C280 74.6274 274.627 80 268 80C261.373 80 256 74.6274 256 68C256 61.3726 261.373 56 268 56Z" fill="#42AEEA"/>
<path d="M124 24C130.627 24 136 29.3726 136 36C136 42.6274 130.627 48 124 48C117.373 48 112 42.6274 112 36C112 29.3726 117.373 24 124 24Z" fill="#42AEEA"/>
</g>
<g id="Outlines">
<path fill-rule="evenodd" clip-rule="evenodd" d="M164 120C182.41 120 198.585 129.567 207.825 144C207.829 144.005 207.832 144.01 207.835 144.016C208.009 144.287 208.179 144.56 208.348 144.835C208.379 144.886 208.411 144.938 208.442 144.989C208.599 145.246 208.752 145.504 208.904 145.764C208.948 145.838 208.991 145.912 209.034 145.986C209.201 146.275 209.366 146.565 209.527 146.856C209.548 146.894 209.569 146.933 209.59 146.971C209.746 147.255 209.9 147.54 210.051 147.827C210.083 147.888 210.114 147.948 210.146 148.009C210.289 148.284 210.43 148.561 210.568 148.839C210.594 148.89 210.618 148.94 210.644 148.991C210.953 149.616 211.25 150.249 211.534 150.888C211.553 150.93 211.572 150.972 211.591 151.015C214.425 157.433 216 164.533 216 172C216 197.959 196.978 219.473 172.113 223.369C172.08 223.374 172.048 223.38 172.015 223.385C171.722 223.43 171.428 223.472 171.134 223.513C171.061 223.523 170.989 223.532 170.916 223.542C170.641 223.579 170.366 223.614 170.09 223.646C170.067 223.649 170.044 223.652 170.021 223.654C169.727 223.688 169.432 223.719 169.136 223.748C169.054 223.756 168.972 223.764 168.89 223.771C167.28 223.922 165.649 224 164 224C135.281 224 112 200.719 112 172C112 150.368 125.208 131.822 144 123.985C144.017 123.978 144.034 123.971 144.051 123.964C144.637 123.72 145.23 123.487 145.827 123.265C145.886 123.243 145.944 123.22 146.003 123.198C146.293 123.091 146.585 122.988 146.877 122.886C146.922 122.87 146.967 122.854 147.013 122.839C147.635 122.624 148.263 122.42 148.896 122.229C148.916 122.222 148.936 122.216 148.956 122.21C149.953 121.909 150.963 121.637 151.984 121.396C151.99 121.394 151.995 121.394 152 121.393C155.852 120.483 159.87 120 164 120ZM164 128C159.84 128 155.815 128.577 152 129.656V214.343C155.815 215.422 159.84 216 164 216C165.348 216 166.682 215.935 168 215.816V148C168 145.791 169.791 144 172 144H197.942C189.872 134.228 177.663 128 164 128ZM176 214.343C194.468 209.119 208 192.14 208 172C208 164.798 206.27 158.001 203.202 152H176V214.343ZM144 132.798C129.753 140.081 120 154.901 120 172C120 189.099 129.754 203.918 144 211.201V132.798Z" fill="#1D1D1B"/>
<path fill-rule="evenodd" clip-rule="evenodd" d="M148 88C150.209 88 152 89.7909 152 92V105.056C151.989 105.058 151.978 105.06 151.967 105.062C155.873 104.364 159.894 104 164 104C201.555 104 232 134.445 232 172C232 184.443 228.656 196.103 222.82 206.136C223.225 205.44 223.619 204.737 224 204.025V214.343L230 220.343L233.172 217.171C233.922 216.421 234.939 216 236 216C237.061 216 238.079 216.421 238.829 217.171L289.829 268.172C298.018 276.361 298.018 289.639 289.829 297.828C281.768 305.89 268.774 306.016 260.559 298.206L260.172 297.828L224 261.656V288H236C238.209 288 240 289.791 240 292C240 294.209 238.209 296 236 296H12C9.79086 296 8 294.209 8 292C8 289.791 9.79086 288 12 288H24V172C24 169.791 25.7909 168 28 168H76C78.2091 168 80 169.791 80 172V288H96V92C96 89.7909 97.7909 88 100 88H148ZM232.864 228.791C232.852 228.803 232.841 228.817 232.829 228.829L220.829 240.829C220.822 240.836 220.814 240.843 220.807 240.85L217.657 244L265.828 292.172L266.068 292.405C271.15 297.235 279.186 297.158 284.172 292.172C289.237 287.107 289.237 278.893 284.172 273.828L236 225.656L232.864 228.791ZM32 288H72V176H32V288ZM104 288H144V237.009C126.725 231.7 112.383 219.697 104 204.025V288ZM152 288H168V239.883C166.676 239.96 165.343 240 164 240C159.905 240 155.895 239.637 152 238.943V288ZM202.441 228.098C194.622 233.466 185.625 237.241 175.916 238.957C175.944 238.952 175.972 238.948 176 238.943V288H216V253.656L209.172 246.828L209.029 246.68C207.611 245.109 207.659 242.685 209.172 241.172L212.343 238L202.441 228.098ZM215.149 216.806C213.176 219.056 211.057 221.176 208.807 223.149L218 232.344L224.343 225.999L215.149 216.806ZM164 112C130.863 112 104 138.863 104 172C104 205.137 130.863 232 164 232C197.137 232 224 205.137 224 172C224 138.863 197.137 112 164 112ZM104 139.974C112.383 124.302 126.725 112.298 144 106.99V96H104V139.974Z" fill="#1D1D1B"/>
<path fill-rule="evenodd" clip-rule="evenodd" d="M124 20C132.837 20 140 27.1634 140 36C140 38.2582 139.531 40.4064 138.687 42.3545L186.228 79.3311C188.931 77.2429 192.32 76 196 76C201.63 76 206.58 78.9081 209.432 83.3037L252.038 69.1025C252.013 68.7382 252 68.3706 252 68C252 59.1634 259.163 52 268 52C276.837 52 284 59.1634 284 68C284 76.8366 276.837 84 268 84C262.369 84 257.418 81.0906 254.566 76.6934L211.961 90.8945C211.986 91.2598 212 91.6284 212 92C212 100.837 204.837 108 196 108C187.163 108 180 100.837 180 92C180 89.7413 180.468 87.5919 181.312 85.6436L133.772 48.668C131.069 50.7564 127.68 52 124 52C121.333 52 118.818 51.3468 116.606 50.1924L65.3369 107.159C67.0193 109.692 68 112.731 68 116C68 124.837 60.8366 132 52 132C43.1634 132 36 124.837 36 116C36 107.163 43.1634 100 52 100C54.6661 100 57.1799 100.652 59.3906 101.806L110.662 44.8379C108.981 42.3055 108 39.2675 108 36C108 27.1634 115.163 20 124 20ZM52 108C47.5817 108 44 111.582 44 116C44 120.418 47.5817 124 52 124C56.4183 124 60 120.418 60 116C60 111.582 56.4183 108 52 108ZM196 84C191.582 84 188 87.5817 188 92C188 96.4183 191.582 100 196 100C200.418 100 204 96.4183 204 92C204 87.5817 200.418 84 196 84ZM268 60C263.582 60 260 63.5817 260 68C260 72.4183 263.582 76 268 76C272.418 76 276 72.4183 276 68C276 63.5817 272.418 60 268 60ZM124 28C119.582 28 116 31.5817 116 36C116 40.4183 119.582 44 124 44C128.418 44 132 40.4183 132 36C132 31.5817 128.418 28 124 28Z" fill="#1D1D1B"/>
</g>
</g>
</svg>
